X:8102
T:John Doherty's
S:irtrad-l, C.Walshaw, 4/95
D:Altan - Island Angel
C:Trad.
E:7
M:4/4
L:1/8
K:D
F2FE FGAB|Addc d2 (3efg|fded cA (3Bcd|cAGE EDD2:|\
f2ed cAAg|fdec dfag|~f2ed cA(3Bcd|cAGE EDD2:|
